Apricity Icons/16/panel/qtox-busy.svg

<svg xmlns="http://www.w3.org/2000/svg" width="16" height="16" version="1.1">
 <defs>
  <style id="current-color-scheme" type="text/css">
   .ColorScheme-Text { color:#dfdfdf; } .ColorScheme-Highlight { color:#4285f4; }
  </style>
 </defs>
 <path style="fill:currentColor" class="ColorScheme-Text" d="M 7.5,1 C 5.2911,1 4,2.7911 4,5 L 4,6 3,6 C 2.4477,5.9999 1.9999,6.4477 2,7 l 0,7 c -10e-5,0.552 0.4477,1 1,1 l 9,0 c 0.552,0 1,-0.448 1,-1 L 13,7 C 13,6.4477 12.552,5.9999 12,6 L 11,6 11,5 C 11,2.7911 9.709,1 7.5,1 Z m 0,2.0371094 c 0.82875,0 1.5,0.671625 1.5,1.5 C 9,4.8907344 8.9227656,5.1683625 8.8222656,5.3671875 8.7225156,5.5660125 8.5035,5.8324344 8.25,6.0371094 8.0025,6.2374344 7.5,6.4882814 7.5,6.4882812 7.5,6.4882812 7.7265625,6.214275 7.8203125,6 7.7145625,6.023475 7.60875,6.0371094 7.5,6.0371094 c -0.8283,7.5e-4 -1.5,-0.671625 -1.5,-1.5 0,-0.828375 0.6711,-1.5 1.5,-1.5 z M 7.5,7 C 9.432875,7 11,8.567125 11,10.5 11,12.432875 9.432875,14 7.5,14 5.5670375,14 4.0000875,12.432875 4,10.5 4.0000875,8.567125 5.5670375,7 7.5,7 Z m -2.5,3 0,1 5,0 0,-1 z"/>
</svg>

<svg xmlns="http://www.w3.org/2000/svg" width="16" height="16"><defs><style id="current-color-scheme" type="text/css"></style></defs><path d="M7.5 1C5.291 1 4 2.791 4 5v1H3a1 1 0 0 0-1 1v7a1 1 0 0 0 1 1h9a1 1 0 0 0 1-1V7a1 1 0 0 0-1-1h-1V5c0-2.209-1.291-4-3.5-4zm0 2.037a1.5 1.5 0 0 1 1.5 1.5c0 .354-.077.631-.178.83-.1.199-.318.465-.572.67-.248.2-.75.451-.75.451s.227-.274.32-.488a1.5 1.5 0 1 1-.32-2.963zM7.5 7a3.5 3.5 0 1 1 0 7 3.5 3.5 0 0 1 0-7zM5 10v1h5v-1z" fill="currentColor" color="#dfdfdf"/></svg>
